Numix-Circle/48x48/apps/vmware-player.svg

<?xml version="1.0" encoding="UTF-8" standalone="no"?>
<svg
   xmlns:dc="http://purl.org/dc/elements/1.1/"
   xmlns:cc="http://creativecommons.org/ns#"
   xmlns:rdf="http://www.w3.org/1999/02/22-rdf-syntax-ns#"
   xmlns:svg="http://www.w3.org/2000/svg"
   xmlns="http://www.w3.org/2000/svg"
   xmlns:sodipodi="http://sodipodi.sourceforge.net/DTD/sodipodi-0.dtd"
   xmlns:inkscape="http://www.inkscape.org/namespaces/inkscape"
   viewBox="0 0 48 48"
   id="svg2"
   version="1.1"
   inkscape:version="0.48.4 r9939"
   width="100%"
   height="100%"
   sodipodi:docname="vmware-player.svg">
  <metadata
     id="metadata78">
    <rdf:RDF>
      <cc:Work
         rdf:about="">
        <dc:format>image/svg+xml</dc:format>
        <dc:type
           rdf:resource="http://purl.org/dc/dcmitype/StillImage" />
      </cc:Work>
    </rdf:RDF>
  </metadata>
  <sodipodi:namedview
     pagecolor="#ffffff"
     bordercolor="#666666"
     borderopacity="1"
     objecttolerance="10"
     gridtolerance="10"
     guidetolerance="10"
     inkscape:pageopacity="0"
     inkscape:pageshadow="2"
     inkscape:window-width="640"
     inkscape:window-height="480"
     id="namedview76"
     showgrid="false"
     inkscape:zoom="4.9166667"
     inkscape:cx="24"
     inkscape:cy="22.372881"
     inkscape:window-x="0"
     inkscape:window-y="0"
     inkscape:window-maximized="0"
     inkscape:current-layer="svg2" />
  <defs
     id="defs4">
    <linearGradient
       id="1"
       gradientUnits="userSpaceOnUse"
       y1="15"
       x2="0"
       y2="11"
       gradientTransform="matrix(15.333333,0,0,11.5,414.99999,-125.5)">
      <stop
         id="stop7" />
      <stop
         offset="1"
         stop-opacity="0"
         id="stop9" />
    </linearGradient>
    <clipPath
       id="clipPath-040332075">
      <g
         transform="translate(0,-1004.3622)"
         id="g12">
        <path
           d="m -24 13 c 0 1.105 -0.672 2 -1.5 2 -0.828 0 -1.5 -0.895 -1.5 -2 0 -1.105 0.672 -2 1.5 -2 0.828 0 1.5 0.895 1.5 2 z"
           transform="matrix(15.333333,0,0,11.5,414.99999,878.8622)"
           fill="#1890d0"
           id="path14" />
      </g>
    </clipPath>
    <clipPath
       id="clipPath-050399010">
      <g
         transform="translate(0,-1004.3622)"
         id="g17">
        <path
           d="m -24 13 c 0 1.105 -0.672 2 -1.5 2 -0.828 0 -1.5 -0.895 -1.5 -2 0 -1.105 0.672 -2 1.5 -2 0.828 0 1.5 0.895 1.5 2 z"
           transform="matrix(15.333333,0,0,11.5,414.99999,878.8622)"
           fill="#1890d0"
           id="path19" />
      </g>
    </clipPath>
    <linearGradient
       id="linear0"
       gradientUnits="userSpaceOnUse"
       x1="24.737"
       y1="38.11"
       x2="24.701"
       y2="9.03"
       gradientTransform="matrix(1,0,0,1,0,0)">
      <stop
         stop-color="#fcbf19"
         stop-opacity="1"
         id="stop22" />
      <stop
         offset="1"
         stop-color="#ffeb39"
         stop-opacity="1"
         id="stop24" />
    </linearGradient>
    <linearGradient
       id="linearGradient26"
       gradientUnits="userSpaceOnUse"
       x1="24.737"
       y1="38.11"
       x2="24.701"
       y2="9.03"
       gradientTransform="matrix(1,0,0,1,0,0)">
      <stop
         stop-color="#fcbf19"
         stop-opacity="1"
         id="stop28" />
      <stop
         offset="1"
         stop-color="#ffeb39"
         stop-opacity="1"
         id="stop30" />
    </linearGradient>
    <linearGradient
       id="1-9"
       gradientUnits="userSpaceOnUse"
       y1="15"
       x2="0"
       y2="11"
       gradientTransform="matrix(15.333333,0,0,11.5,414.99999,-125.5)">
      <stop
         id="stop7-0" />
      <stop
         offset="1"
         stop-opacity="0"
         id="stop9-7" />
    </linearGradient>
  </defs>
  <g
     transform="translate(9.9999993e-7,0.0022)"
     id="g21">
    <g
       transform="translate(0,-1004.3622)"
       id="g23">
      <path
         style="opacity:0.05"
         inkscape:connector-curvature="0"
         d="m 25,1006.36 c -12.703,0 -23,10.298 -23,23 0,6.367 2.601,12.12 6.781,16.281 4.085,3.712 9.514,5.969 15.469,5.969 12.703,0 23,-10.297 23,-23 0,-5.954 -2.256,-11.384 -5.969,-15.469 -4.165,-4.181 -9.914,-6.781 -16.281,-6.781 z m 16.281,6.781 c 3.854,4.113 6.219,9.637 6.219,15.719 0,12.703 -10.297,23 -23,23 -6.081,0 -11.606,-2.364 -15.719,-6.219 4.16,4.144 9.883,6.719 16.219,6.719 12.703,0 23,-10.297 23,-23 0,-6.335 -2.575,-12.06 -6.719,-16.219 z"
         id="path25" />
      <path
         style="opacity:0.1"
         inkscape:connector-curvature="0"
         d="m 41.28,1013.14 c 3.712,4.085 5.969,9.514 5.969,15.469 0,12.703 -10.297,23 -23,23 -5.954,0 -11.384,-2.256 -15.469,-5.969 4.113,3.854 9.637,6.219 15.719,6.219 12.703,0 23,-10.297 23,-23 0,-6.081 -2.364,-11.606 -6.219,-15.719 z"
         id="path27" />
      <path
         style="opacity:0.2"
         inkscape:connector-curvature="0"
         transform="matrix(15.333333,0,0,11.5,415.24999,879.11222)"
         d="m -24,13 a 1.5,2 0 1 1 -3,0 1.5,2 0 1 1 3,0 z"
         id="path29" />
    </g>
  </g>
  <g
     transform="translate(9.9999993e-7,0.0022)"
     id="g31">
    <g
       transform="translate(0,-1004.3622)"
       id="g33">
      <path
         style="fill:#eeeeee"
         inkscape:connector-curvature="0"
         d="m -24,13 c 0,1.105 -0.672,2 -1.5,2 -0.828,0 -1.5,-0.895 -1.5,-2 0,-1.105 0.672,-2 1.5,-2 0.828,0 1.5,0.895 1.5,2 z"
         transform="matrix(15.333333,0,0,11.5,414.99999,878.8622)"
         id="path35" />
    </g>
  </g>
  <g
     transform="translate(9.9999993e-7,0.0022)"
     id="g37">
    <path
       style="opacity:0.15;fill:url(#1-9)"
       inkscape:connector-curvature="0"
       d="M 47,24 C 47,36.703 36.703,47 24,47 11.297,47 1,36.703 1,24 1,11.297 11.297,1 24,1 36.703,1 47,11.297 47,24 z"
       id="path39" />
  </g>
  <g
     transform="translate(9.9999993e-7,0.0022)"
     id="g69">
    <path
       style="opacity:0.1"
       inkscape:connector-curvature="0"
       d="m 40.03,7.531 c 3.712,4.084 5.969,9.514 5.969,15.469 0,12.703 -10.297,23 -23,23 C 17.045,46 11.615,43.744 7.53,40.031 11.708,44.322 17.54,47 23.999,47 c 12.703,0 23,-10.298 23,-23 0,-6.462 -2.677,-12.291 -6.969,-16.469 z"
       id="path71" />
  </g>
  <g
     id="g52">
    <g
       clip-path="url(#clipPath-040332075)"
       id="g54">
      <g
         transform="translate(0,1)"
         id="g56">
        <g
           opacity="0.1"
           id="g58">
          <!-- color: #dfdfdf -->
          <g
             id="g60">
            <path
               d="m 14 12 c -1 0 -2 1 -2 2 l 0 7 c 0 1 1 2 2 2 c 1 0 2 -1 2 -2 l 0 -3 l 2 2 l 0 3 l 3 0 l 0 -1 c -0.031 -0.664 0.301 -0.996 1 -1 l 1 0 l 0 -3 l -3 0 l -2 -2 l 3 0 c 1 0 2 -1 2 -2 c 0 -1 -1 -2 -2 -2 m 6 0 c -1 0 -2 1 -2 2 c 0 1 1 2 2 2 l 3 0 l -2 2 l -3 0 l 0 3 l 1 0 c 0.664 -0.031 0.996 0.301 1 1 l 0 1 l 3 0 l 0 -3 l 2 -2 l 0 3 c 0 1 1 2 2 2 c 1 0 2 -1 2 -2 l 0 -7 c 0 -1 -1 -2 -2 -2 m -16 13 l 0 3 c 0 1 1 2 2 2 l 3 0 l 0 -3 l -1 0 c -0.664 0.031 -0.996 -0.301 -1 -1 l 0 -1 m 6 0 l 0 1 c 0.031 0.664 -0.301 0.996 -1 1 l -1 0 l 0 3 l 3 0 l 2 2 l -3 0 c -1 0 -2 1 -2 2 c 0 1 1 2 2 2 l 7 0 c 1 0 2 -1 2 -2 l 0 -7 c 0 -1 -1 -2 -2 -2 c -1 0 -2 1 -2 2 l 0 3 l -2 -2 l 0 -3 m -3 0"
               fill="#000"
               stroke="none"
               fill-rule="nonzero"
               id="path62" />
          </g>
        </g>
      </g>
    </g>
  </g>
  <g
     id="g64">
    <g
       clip-path="url(#clipPath-050399010)"
       id="g66">
      <!-- color: #dfdfdf -->
      <g
         id="g68">
        <path
           d="m 14 12 c -1 0 -2 1 -2 2 l 0 7 c 0 1 1 2 2 2 c 1 0 2 -1 2 -2 l 0 -3 l 2 2 l 0 3 l 3 0 l 0 -1 c -0.031 -0.664 0.301 -0.996 1 -1 l 1 0 l 0 -3 l -3 0 l -2 -2 l 3 0 c 1 0 2 -1 2 -2 c 0 -1 -1 -2 -2 -2 m 6 0 c -1 0 -2 1 -2 2 c 0 1 1 2 2 2 l 3 0 l -2 2 l -3 0 l 0 3 l 1 0 c 0.664 -0.031 0.996 0.301 1 1 l 0 1 l 3 0 l 0 -3 l 2 -2 l 0 3 c 0 1 1 2 2 2 c 1 0 2 -1 2 -2 l 0 -7 c 0 -1 -1 -2 -2 -2 m -16 13 l 0 3 c 0 1 1 2 2 2 l 3 0 l 0 -3 l -1 0 c -0.664 0.031 -0.996 -0.301 -1 -1 l 0 -1 m 6 0 l 0 1 c 0.031 0.664 -0.301 0.996 -1 1 l -1 0 l 0 3 l 3 0 l 2 2 l -3 0 c -1 0 -2 1 -2 2 c 0 1 1 2 2 2 l 7 0 c 1 0 2 -1 2 -2 l 0 -7 c 0 -1 -1 -2 -2 -2 c -1 0 -2 1 -2 2 l 0 3 l -2 -2 l 0 -3 m -3 0"
           fill="url(#linear0)"
           stroke="none"
           fill-rule="nonzero"
           id="path70" />
      </g>
    </g>
  </g>
</svg>

<svg xmlns="http://www.w3.org/2000/svg" xmlns:xlink="http://www.w3.org/1999/xlink" width="48" viewBox="0 0 13.546667 13.546667" height="48">
 <defs>
  <linearGradient id="0">
   <stop stop-color="#fdbf1a"/>
   <stop offset="1" stop-color="#ffeb3a"/>
  </linearGradient>
  <linearGradient id="1">
   <stop stop-color="#dedede"/>
   <stop offset="1" stop-color="#f9f9f9"/>
  </linearGradient>
  <linearGradient gradientTransform="matrix(1.10525 0 0 1.10525 -134.27874 -295.76183)" xlink:href="#1" id="2" y1="279.1" y2="268.33" gradientUnits="userSpaceOnUse" x2="0"/>
  <linearGradient xlink:href="#0" id="3" gradientUnits="userSpaceOnUse" x1="24.737" y1="38.11" x2="24.701" y2="9.03"/>
 </defs>
 <g fill-rule="evenodd">
  <rect width="12.982" x="0.282" y="0.283" rx="6.491" height="12.982" opacity="0.5" fill="#fff"/>
  <rect width="11.853" x="0.847" y="0.847" rx="5.926" height="11.853" fill="url(#2)"/>
 </g>
 <path d="M 14 12 C 13 12 12 13 12 14 L 12 21 C 12 22 13 23 14 23 C 15 23 16 22 16 21 L 16 18 L 18 20 L 18 23 L 21 23 L 21 22 C 20.96893 21.336158 21.30226 21.002825 22 21 L 23 21 L 23 18 L 20 18 L 18 16 L 21 16 C 22 16 23 15 23 14 C 23 13 22 12 21 12 L 14 12 z M 27 12 C 26 12 25 13 25 14 C 25 15 26 16 27 16 L 30 16 L 28 18 L 25 18 L 25 21 L 26 21 C 26.663842 20.968925 26.997175 21.302262 27 22 L 27 23 L 30 23 L 30 20 L 32 18 L 32 21 C 32 22 33 23 34 23 C 35 23 36 22 36 21 L 36 14 C 36 13 35 12 34 12 L 27 12 z M 18 25 L 18 28 C 17.999999 28.999999 19 29.999999 20 30 L 23 30 L 23 27 L 22 27 C 21.336158 27.031075 21.002825 26.697738 21 26 L 21 25 L 18 25 z M 27 25 L 27 26 C 27.031075 26.663842 26.697738 26.997175 26 27 L 25 27 L 25 30 L 28 30 L 30 32 L 27 32 C 26 32 25 33 25 34 C 25 35 26 36 27 36 L 34 36 C 35 36 36 35 36 34 L 36 27 C 36 26 35 25 34 25 C 33 25 32 26 32 27 L 32 30 L 30 28 L 30 25 L 27 25 z " transform="scale(0.28222223,0.28222223)" fill="url(#3)"/>
</svg>
